src/assets/icon-hand.svg

<svg xmlns="http://www.w3.org/2000/svg" width="36" height="36" viewBox="0 0 36 36">
  <g fill="none">
    <path stroke="currentColor" stroke-linecap="round" stroke-linejoin="round" stroke-width="2" d="M3.4590801 16.4067018L.122586627 10.4216907C-.0143450053 10.1274965-.0375906662 9.78572324.0580410676 9.4726988.153672801 9.15967437.360215862 8.90147346.631543259 8.75575976 1.18635054 8.46519177 1.85226661 8.71194969 2.13013778 9.31107007L3.40252936 11.5323113M3.56549653 11.6106412L3.09431007 1.89999998C3.09431007 1.20043931 3.67406339.633333328 4.38922535.633333328 5.1043873.633333328 5.68414062 1.20043931 5.68414062 1.89999998L6.15532707 7.36730786 6.65532707 1.26666666C6.65532707.567105978 7.23508039-3.03819701e-14 7.95024234-3.03819701e-14 8.6654043-3.03819701e-14 9.24515762.567105978 9.24515762 1.26666666L8.74515762 8.00064118 9.89261525 2.53333331C9.89261525 1.83377263 10.4723686 1.26666666 11.1875305 1.26666666 11.9026925 1.26666666 12.4824458 1.83377263 12.4824458 2.53333331L11.3349882 8.63397451 12.1609857 5.82556926C12.4523417 5.19223593 12.7436976 4.5589026 13.455901 4.5589026 14.1681044 4.5589026 14.9126807 5.16056927 14.7508163 5.82556926L13.9248187 10.8506412 13.3378523 13.9048551C12.8933475 16.3141496 10.5909805 18.2371592 8.80307563 18.2371592 7.61113904 18.2371592 6.80409291 18.2027643 6.38193724 18.1339744 5.24713975 18.13423 4.19335719 17.558903 3.59786941 16.6139744" transform="rotate(30 -6.41 30.361)"/>
    <path stroke="currentColor" stroke-linecap="round" stroke-linejoin="round" stroke-width="1.5" d="M27,14 C27,10.1340068 23.8659932,7 20,7" opacity=".5"/>
  </g>
</svg>

<svg viewBox="0 0 36 36" xmlns="http://www.w3.org/2000/svg">
<g fill="none" stroke="currentColor" stroke-linecap="round" stroke-linejoin="round">
<path transform="rotate(30 -6.41 30.361)" d="m3.4591 16.407-3.3365-5.985c-0.13693-0.29419-0.16018-0.63597-0.064546-0.94899 0.095632-0.31302 0.30217-0.57123 0.5735-0.71694 0.55481-0.29057 1.2207-0.04381 1.4986 0.55531l1.2724 2.2212m0.16297 0.07833-0.47119-9.7106c0-0.69956 0.57975-1.2667 1.2949-1.2667 0.71516 0 1.2949 0.56711 1.2949 1.2667l0.47119 5.4673 0.5-6.1006c0-0.69956 0.57975-1.2667 1.2949-1.2667 0.71516 0 1.2949 0.56711 1.2949 1.2667l-0.5 6.734 1.1475-5.4673c0-0.69956 0.57975-1.2667 1.2949-1.2667 0.71516 0 1.2949 0.56711 1.2949 1.2667l-1.1475 6.1006 0.826-2.8084c0.29136-0.63333 0.58271-1.2667 1.2949-1.2667s1.4568 0.60167 1.2949 1.2667l-0.826 5.0251-0.58697 3.0542c-0.4445 2.4093-2.7469 4.3323-4.5348 4.3323-1.1919 0-1.999-0.034395-2.4211-0.10318-1.1348 2.556e-4 -2.1886-0.57507-2.7841-1.52" stroke-width="2"/>
<path d="m27 14c0-3.866-3.134-7-7-7" opacity=".5" stroke-width="1.5"/>
</g>
</svg>
